X: 2239
T: Aye Right
R: reel
M: 4/4
K: Bminor
|:f3 e fBBB|ABBB dBde|effe fBBB|ABde fgfe|
f3 e fBBB|ABBB dBde|dBBB gBdB|ABde cdde:|
|:fgfd ABdA|BdfA aAfA|fgfd ABdA|Adfd e2 de|
fgfd ABdA|BdfA aAfA|aAfA gAfA|edef d2 de:|
|:faaa AaBa|AaBa AaBa|faaa AaBa|fdgf e2 de|
faaa AaBa|AaBa AaBa|aAAA gAfA|edef d2 de:|

